X:1
T:Indicating Rock
M:6/8
L:1/8
K:F
 C| F2 F F2 F| F2- G A2 F| G2 G F2 E| F3- F2 A| B2 B B2 B| A2 B c2 A|\
 B2 A G2 F| c3- c2 A| B2 c d2 B| A c2- cc A| BBA G2 F| c3- cC C| F2 F F2 G|\
 A2 A F2 F| G2 G F2 E| F3- F2|
